src/assets/img/partners/github_education-hero.svg

<svg width="165" height="32" viewBox="0 0 165 32" fill="none" xmlns="http://www.w3.org/2000/svg">
<g clip-path="url(#clip0_3529_844)">
<path fill-rule="evenodd" clip-rule="evenodd" d="M16.4703 0.266724C7.61527 0.266724 0.457031 7.47816 0.457031 16.3989C0.457031 23.5301 5.0436 29.5664 11.4065 31.7031C12.2018 31.8634 12.4935 31.3561 12.4935 30.9287C12.4935 30.5547 12.4669 29.2727 12.4669 27.9371C8.01293 28.8987 7.08503 26.0141 7.08503 26.0141C6.3692 24.1444 5.30873 23.6637 5.30873 23.6637C3.85056 22.6754 5.41476 22.6754 5.41476 22.6754C7.032 22.7824 7.88036 24.3314 7.88036 24.3314C9.31203 26.7887 11.6186 26.0944 12.5465 25.6671C12.679 24.6254 13.1032 23.9041 13.5539 23.5034C10.0013 23.1297 6.26316 21.7407 6.26316 15.5442C6.26316 13.7815 6.89943 12.3392 7.9069 11.2174C7.74783 10.8168 7.19107 9.16079 8.06597 6.94396C8.06597 6.94396 9.41807 6.51662 12.4669 8.59992C13.7395 8.25269 15.1181 8.06572 16.4703 8.06572C17.8224 8.06572 19.201 8.25269 20.4736 8.59992C23.5224 6.51662 24.8747 6.94396 24.8747 6.94396C25.7494 9.16079 25.1927 10.8168 25.0337 11.2174C26.0677 12.3392 26.6774 13.7815 26.6774 15.5442C26.6774 21.7407 22.9392 23.1027 19.3601 23.5034C19.9433 24.0111 20.447 24.9724 20.447 26.4947C20.447 28.6584 20.4205 30.3944 20.4205 30.9287C20.4205 31.3561 20.7122 31.8634 21.5075 31.7031C27.8704 29.5664 32.457 23.5301 32.457 16.3989C32.4834 7.47816 25.2987 0.266724 16.4703 0.266724Z" fill="white"/>
<path d="M6.52783 23.4234C6.50133 23.5034 6.36876 23.53 6.26273 23.4767C6.15666 23.4234 6.07713 23.3164 6.13016 23.2364C6.15666 23.1564 6.28923 23.1294 6.3953 23.183C6.50133 23.2364 6.55436 23.343 6.52783 23.4234Z" fill="white"/>
<path d="M7.16546 24.1444C7.08593 24.2248 6.92686 24.1711 6.84733 24.0644C6.74126 23.9574 6.71476 23.7974 6.79429 23.7171C6.87383 23.6371 7.00639 23.6904 7.11243 23.7974C7.21849 23.9308 7.24499 24.0911 7.16546 24.1444Z" fill="white"/>
<path d="M7.80114 25.0794C7.69508 25.1594 7.53601 25.0794 7.45648 24.9457C7.35044 24.812 7.35044 24.6254 7.45648 24.5717C7.56251 24.4917 7.72161 24.5717 7.80114 24.7054C7.90718 24.839 7.90718 24.999 7.80114 25.0794Z" fill="white"/>
<path d="M8.67537 25.9873C8.59584 26.0943 8.41027 26.0673 8.25117 25.934C8.11864 25.8003 8.0656 25.6133 8.17164 25.5333C8.25117 25.4263 8.43677 25.453 8.59584 25.5867C8.7284 25.6937 8.7549 25.8807 8.67537 25.9873Z" fill="white"/>
<path d="M9.86801 26.4947C9.84148 26.6284 9.65591 26.6817 9.47031 26.6284C9.28474 26.575 9.17868 26.4147 9.20521 26.308C9.23171 26.1744 9.41727 26.121 9.60287 26.1744C9.78844 26.2277 9.89451 26.3614 9.86801 26.4947Z" fill="white"/>
<path d="M11.1678 26.6017C11.1678 26.7353 11.0087 26.842 10.8231 26.842C10.6376 26.842 10.4785 26.7353 10.4785 26.6017C10.4785 26.468 10.6376 26.3613 10.8231 26.3613C11.0087 26.3613 11.1678 26.468 11.1678 26.6017Z" fill="white"/>
<path d="M12.3869 26.388C12.4134 26.5217 12.2808 26.655 12.0953 26.6817C11.9097 26.7087 11.7506 26.6284 11.7241 26.495C11.6976 26.3614 11.8301 26.2277 12.0157 26.201C12.2013 26.1744 12.3604 26.2544 12.3869 26.388Z" fill="white"/>
<path d="M42.5879 27H54.8606V24.481H45.5139V18.5436H54.1126V16.0341H45.5139V10.125H54.7469V7.60608H42.5879V27Z" fill="white"/>
<path d="M63.607 27.284C66.2583 27.284 67.3 25.6647 67.8113 24.7367H68.048V27H70.8133V7.60608H67.982V14.8125H67.8113C67.3 13.9129 66.334 12.2652 63.6257 12.2652C60.1127 12.2652 57.5273 15.0398 57.5273 19.7557C57.5273 24.462 60.0747 27.284 63.607 27.284ZM64.232 24.8693C61.7033 24.8693 60.3873 22.6439 60.3873 19.7273C60.3873 16.839 61.675 14.6705 64.232 14.6705C66.7033 14.6705 68.0293 16.6875 68.0293 19.7273C68.0293 22.786 66.675 24.8693 64.232 24.8693Z" fill="white"/>
<path d="M83.8019 20.9679C83.8112 23.4394 81.9742 24.6137 80.3832 24.6137C78.6312 24.6137 77.4192 23.3447 77.4192 21.3656V12.4546H74.5879V21.7065C74.5879 25.3144 76.5669 27.1894 79.3606 27.1894C81.5479 27.1894 83.0346 26.0341 83.7069 24.4811H83.8586V27.0001H86.6426V12.4546H83.8019V20.9679Z" fill="white"/>
<path d="M96.3077 27.2938C99.7453 27.2938 101.971 25.2294 102.283 22.3978H99.5273C99.1677 23.9698 97.946 24.8978 96.3267 24.8978C93.931 24.8978 92.3873 22.8998 92.3873 19.7274C92.3873 16.6118 93.9593 14.6516 96.3267 14.6516C98.126 14.6516 99.2243 15.788 99.5273 17.1516H102.283C101.98 14.216 99.5843 12.2653 96.2793 12.2653C92.179 12.2653 89.5273 15.3524 89.5273 19.7937C89.5273 24.1781 92.0843 27.2938 96.3077 27.2938Z" fill="white"/>
<path d="M109.276 27.3221C111.681 27.3221 113.036 26.1004 113.575 25.0114H113.689V27.0001H116.454V17.341C116.454 13.1081 113.121 12.2653 110.81 12.2653C108.178 12.2653 105.753 13.3259 104.806 15.9774L107.467 16.5834C107.884 15.5512 108.945 14.5569 110.848 14.5569C112.676 14.5569 113.613 15.5134 113.613 17.1611V17.2274C113.613 18.2596 112.553 18.2406 109.939 18.5437C107.183 18.8656 104.361 19.5853 104.361 22.8901C104.361 25.7501 106.511 27.3221 109.276 27.3221ZM109.892 25.0494C108.291 25.0494 107.136 24.3298 107.136 22.9281C107.136 21.413 108.481 20.8732 110.119 20.6554C111.037 20.5323 113.215 20.2861 113.623 19.8789V21.7539C113.623 23.4774 112.25 25.0494 109.892 25.0494Z" fill="white"/>
<path d="M126.75 12.4546H123.767V8.96973H120.935V12.4546H118.805V14.7273H120.935V23.3164C120.926 25.9584 122.943 27.2367 125.178 27.1894C126.077 27.18 126.684 27.0094 127.015 26.8864L126.504 24.5474C126.314 24.5854 125.964 24.6704 125.509 24.6704C124.591 24.6704 123.767 24.3674 123.767 22.7294V14.7273H126.75V12.4546Z" fill="white"/>
<path d="M129.614 27.0001H132.445V12.4546H129.614V27.0001ZM131.044 10.2103C132.019 10.2103 132.834 9.45272 132.834 8.52469C132.834 7.59666 132.019 6.82959 131.044 6.82959C130.059 6.82959 129.254 7.59666 129.254 8.52469C129.254 9.45272 130.059 10.2103 131.044 10.2103Z" fill="white"/>
<path d="M142.116 27.2938C146.217 27.2938 148.897 24.2918 148.897 19.7937C148.897 15.2671 146.217 12.2653 142.116 12.2653C138.016 12.2653 135.336 15.2671 135.336 19.7937C135.336 24.2918 138.016 27.2938 142.116 27.2938ZM142.126 24.9168C139.446 24.9168 138.196 22.5778 138.196 19.7842C138.196 17.0001 139.446 14.6327 142.126 14.6327C144.787 14.6327 146.037 17.0001 146.037 19.7842C146.037 22.5778 144.787 24.9168 142.126 24.9168Z" fill="white"/>
<path d="M154.62 18.3637C154.62 16.0437 156.041 14.7179 158.011 14.7179C159.933 14.7179 161.098 15.9774 161.098 18.0891V27.0001H163.929V17.7482C163.929 14.1497 161.95 12.2653 158.976 12.2653C156.789 12.2653 155.359 13.2785 154.687 14.8221H154.507V12.4546H151.789V27.0001H154.62V18.3637Z" fill="white"/>
</g>
<defs>
<clipPath id="clip0_3529_844">
<rect width="164" height="32" fill="white" transform="translate(0.253906)"/>
</clipPath>
</defs>
</svg>

<svg xmlns="http://www.w3.org/2000/svg" width="165" height="32" fill="none"><clipPath id="a"><path d="M.254 0h164v32h-164z"/></clipPath><g fill="#fff" clip-path="url(#a)"><path fill-rule="evenodd" d="M16.47.267C7.615.267.457 7.478.457 16.399c0 7.131 4.587 13.167 10.95 15.304.795.16 1.087-.347 1.087-.774 0-.374-.027-1.656-.027-2.992-4.454.962-5.382-1.923-5.382-1.923-.716-1.87-1.776-2.35-1.776-2.35-1.458-.989.106-.989.106-.989 1.617.107 2.465 1.656 2.465 1.656 1.432 2.458 3.739 1.763 4.667 1.336.132-1.042.556-1.763 1.007-2.164-3.553-.373-7.29-1.762-7.29-7.959 0-1.763.635-3.205 1.643-4.327-.16-.4-.716-2.056.159-4.273 0 0 1.352-.427 4.4 1.656a15.4 15.4 0 0 1 4.004-.534c1.352 0 2.731.187 4.004.534 3.048-2.083 4.4-1.656 4.4-1.656.875 2.217.319 3.873.16 4.273 1.034 1.122 1.643 2.564 1.643 4.327 0 6.197-3.738 7.559-7.317 7.96.583.507 1.087 1.468 1.087 2.99 0 2.164-.027 3.9-.027 4.435 0 .427.292.934 1.087.774 6.363-2.137 10.95-8.173 10.95-15.304C32.483 7.479 25.299.267 16.47.267" clip-rule="evenodd"/><path d="M6.528 23.423c-.027.08-.16.107-.265.054-.106-.054-.186-.16-.133-.24.027-.08.16-.108.265-.054.106.053.16.16.133.24M7.165 24.144c-.08.08-.238.027-.318-.08-.106-.107-.132-.267-.053-.347s.212-.027.318.08c.106.134.133.294.053.347M7.801 25.08c-.106.08-.265 0-.345-.134-.106-.134-.106-.32 0-.374.107-.08.266 0 .345.133.106.134.106.294 0 .374M8.675 25.987c-.08.107-.265.08-.424-.053-.132-.134-.185-.32-.08-.4.08-.108.266-.081.425.053.132.107.159.294.08.4M9.868 26.495c-.027.133-.212.187-.398.133-.185-.053-.291-.213-.265-.32.027-.134.212-.187.398-.134.185.054.292.187.265.32M11.168 26.602c0 .133-.16.24-.345.24s-.345-.107-.345-.24c0-.134.16-.24.345-.24.186 0 .345.106.345.24M12.387 26.388c.026.134-.106.267-.292.294-.185.027-.344-.054-.37-.187-.027-.134.105-.267.29-.294.186-.027.345.053.372.187M42.588 27H54.86v-2.519h-9.347v-5.937h8.599v-2.51h-8.6v-5.909h9.234V7.606h-12.16zM63.607 27.284c2.651 0 3.693-1.62 4.204-2.547h.237V27h2.765V7.606h-2.831v7.206h-.17c-.512-.9-1.478-2.547-4.186-2.547-3.513 0-6.099 2.775-6.099 7.49 0 4.707 2.548 7.529 6.08 7.529m.625-2.415c-2.529 0-3.845-2.225-3.845-5.142 0-2.888 1.288-5.057 3.845-5.057 2.471 0 3.797 2.018 3.797 5.057 0 3.059-1.354 5.142-3.797 5.142M83.802 20.968c.01 2.471-1.828 3.646-3.419 3.646-1.752 0-2.964-1.27-2.964-3.248v-8.911h-2.831v9.252c0 3.607 1.979 5.482 4.773 5.482 2.187 0 3.674-1.155 4.346-2.708h.152v2.52h2.784V12.454h-2.841zM96.308 27.294c3.437 0 5.663-2.065 5.975-4.896h-2.756c-.36 1.572-1.581 2.5-3.2 2.5-2.396 0-3.94-1.998-3.94-5.17 0-3.116 1.572-5.076 3.94-5.076 1.799 0 2.897 1.136 3.2 2.5h2.756c-.303-2.936-2.699-4.887-6.004-4.887-4.1 0-6.752 3.087-6.752 7.529 0 4.384 2.557 7.5 6.78 7.5M109.276 27.322c2.405 0 3.76-1.222 4.299-2.31h.114V27h2.765v-9.659c0-4.233-3.333-5.076-5.644-5.076-2.632 0-5.057 1.06-6.004 3.712l2.661.606c.417-1.032 1.478-2.026 3.381-2.026 1.828 0 2.765.956 2.765 2.604v.066c0 1.033-1.06 1.014-3.674 1.317-2.756.322-5.578 1.041-5.578 4.346 0 2.86 2.15 4.432 4.915 4.432m.616-2.273c-1.601 0-2.756-.72-2.756-2.12 0-1.516 1.345-2.056 2.983-2.274.918-.123 3.096-.369 3.504-.776v1.875c0 1.723-1.373 3.295-3.731 3.295M126.75 12.455h-2.983V8.97h-2.832v3.485h-2.13v2.272h2.13v8.59c-.009 2.641 2.008 3.92 4.243 3.872.899-.009 1.506-.18 1.837-.303l-.511-2.339c-.19.038-.54.123-.995.123-.918 0-1.742-.303-1.742-1.94v-8.003h2.983zM129.614 27h2.831V12.455h-2.831zm1.43-16.79c.975 0 1.79-.757 1.79-1.685s-.815-1.695-1.79-1.695c-.985 0-1.79.767-1.79 1.695s.805 1.685 1.79 1.685M142.116 27.294c4.101 0 6.781-3.002 6.781-7.5 0-4.527-2.68-7.529-6.781-7.529s-6.78 3.002-6.78 7.529c0 4.498 2.68 7.5 6.78 7.5m.01-2.377c-2.68 0-3.93-2.34-3.93-5.133 0-2.784 1.25-5.151 3.93-5.151 2.661 0 3.911 2.367 3.911 5.151 0 2.794-1.25 5.133-3.911 5.133M154.62 18.364c0-2.32 1.421-3.646 3.391-3.646 1.922 0 3.087 1.26 3.087 3.371V27h2.831v-9.252c0-3.598-1.979-5.483-4.953-5.483-2.187 0-3.617 1.014-4.289 2.557h-.18v-2.367h-2.718V27h2.831z"/></g></svg>
